X: 11752
T: Eleno Mome
R: jig
M: 6/8
K: Amixolydian
M:7/16
L:1/16
|:A2Bc dcB|c4 dcB|A2Bc dcB|c4 dcB|ABcB AG2|G4 dcB|
ABcB AG2|A4 A2A|ABcB AG2|G4 dcB|ABcB AG2|A4 A2A:|
|:e2c2 ec2|d2B2 ec2|e2c2 ec2|d2B2 ec2|
=c2B2 dB2|=c2B2 dB2|=c2B2 dB2|=c2B2 A2A:|

